src/lib/packages/icons/src/assets/line/cloud-slash.svg

<svg width="24" height="24" viewBox="0 0 24 24" fill="none" xmlns="http://www.w3.org/2000/svg">
<path d="M16.5301 8.53005L21.5301 3.53005C21.8231 3.23705 21.8231 2.76202 21.5301 2.46902C21.2371 2.17602 20.762 2.17602 20.469 2.46902L15.6721 7.26601C15.5781 7.27101 15.4829 7.27105 15.3899 7.28005C15.0759 6.84405 14.7059 6.43501 14.2859 6.05801C12.9709 4.89101 11.27 4.24905 9.49905 4.24905C5.50105 4.24905 2.24905 7.50105 2.24905 11.499C2.24905 13.918 3.47304 16.175 5.43704 17.5L2.46804 20.469C2.17504 20.762 2.17504 21.2371 2.46804 21.5301C2.61404 21.6761 2.80607 21.75 2.99807 21.75C3.19007 21.75 3.3821 21.6771 3.5281 21.5301L16.5301 8.53005ZM3.75002 11.5C3.75002 8.32902 6.32902 5.75002 9.50002 5.75002C10.904 5.75002 12.2511 6.258 13.2891 7.178C13.7291 7.573 14.1011 8.01203 14.3931 8.48403C14.4011 8.49703 14.4131 8.50503 14.4221 8.51803L6.53396 16.406C4.83196 15.385 3.75002 13.519 3.75002 11.5ZM21.75 13C21.75 16.171 19.171 18.75 16 18.75H10C9.58602 18.75 9.25002 18.414 9.25002 18C9.25002 17.586 9.58602 17.25 10 17.25H16C18.344 17.25 20.25 15.344 20.25 13C20.25 11.672 19.6141 10.4 18.5491 9.59902C18.2181 9.35002 18.1519 8.88003 18.4009 8.54903C18.6489 8.21903 19.1169 8.15005 19.4519 8.40005C20.8909 9.48305 21.75 11.203 21.75 13Z" fill="currentColor"/>
</svg>

<svg xmlns="http://www.w3.org/2000/svg" width="24" height="24" fill="none"><path fill="currentColor" d="m16.53 8.53 5-5a.75.75 0 1 0-1.061-1.061l-4.797 4.797c-.094.005-.19.005-.282.014a7.67 7.67 0 0 0-1.104-1.222 7.202 7.202 0 0 0-4.787-1.809c-3.998 0-7.25 3.252-7.25 7.25A7.27 7.27 0 0 0 5.437 17.5l-2.969 2.969a.75.75 0 0 0 1.06 1.061l13.002-13ZM3.75 11.5A5.756 5.756 0 0 1 9.5 5.75a5.71 5.71 0 0 1 3.79 1.428c.44.395.811.834 1.103 1.306.008.013.02.021.03.034l-7.889 7.888A5.746 5.746 0 0 1 3.75 11.5Zm18 1.5A5.756 5.756 0 0 1 16 18.75h-6a.75.75 0 0 1 0-1.5h6A4.254 4.254 0 0 0 20.25 13a4.28 4.28 0 0 0-1.7-3.401.75.75 0 1 1 .902-1.199A5.788 5.788 0 0 1 21.75 13Z"/></svg>
